build/img/diagramm.svg

<svg width="40" height="40" viewBox="0 0 40 40" fill="none" xmlns="http://www.w3.org/2000/svg">
<path fill-rule="evenodd" clip-rule="evenodd" d="M32.6667 0H39.3334C39.7015 0 40 0.298503 40 0.666667V36.6667C40 37.0349 39.7015 37.3334 39.3334 37.3334H32.6667C32.2985 37.3334 32 37.0349 32 36.6667V12.9427L29.3333 15.6094V36.6667C29.3333 37.0349 29.0348 37.3334 28.6667 37.3334H22C21.6318 37.3334 21.3333 37.0349 21.3333 36.6667V17.4121L18.6667 16.0788V36.6667C18.6667 37.0349 18.3682 37.3334 18 37.3334H11.3333C10.9652 37.3334 10.6667 37.0349 10.6667 36.6667V18.2761L8 20.9427V36.6667C8 37.0349 7.7015 37.3334 7.33334 37.3334H0.666667C0.298503 37.3334 0 37.0349 0 36.6667V16.6667C0 16.2985 0.298503 16 0.666667 16H7.33334C7.7015 16 8 16.2985 8 16.6667V19.0573L10.6667 16.3906V6C10.6667 5.63184 10.9652 5.33334 11.3333 5.33334H18C18.3682 5.33334 18.6667 5.63184 18.6667 6V14.5879L21.3333 15.9212V11.3333C21.3333 10.9652 21.6318 10.6667 22 10.6667H28.6667C29.0348 10.6667 29.3333 10.9652 29.3333 11.3333V13.724L32 11.0573V0.666667C32 0.298503 32.2985 0 32.6667 0ZM4.34082 22.7168L6.66667 20.3906V17.3333H1.33333V36H6.66667V22.2761L5.28321 23.6592C5.31511 23.7702 5.33171 23.8848 5.33334 24C5.33334 24.7363 4.73633 25.3333 4 25.3333C3.26367 25.3333 2.66667 24.7363 2.66667 24C2.66667 23.2637 3.26367 22.6667 4 22.6667C4.11524 22.6683 4.22982 22.6849 4.34082 22.7168ZM12 16.9427V36H17.3333V15.4121L15.4001 14.4453C15.1826 14.5899 14.9277 14.667 14.6667 14.6667C14.5514 14.665 14.4369 14.6484 14.3259 14.6165L12 16.9427ZM15.9912 13.2507L17.3333 13.9212V6.66667H12V15.0573L13.3835 13.6742C13.3516 13.5632 13.335 13.4486 13.3333 13.3333C13.3636 12.6361 13.9264 12.0801 14.624 12.0583C15.3216 12.0368 15.918 12.5566 15.9912 13.2507ZM22.6667 18.0788V36H28V16.9427L26.6165 18.3259C26.6485 18.4369 26.6651 18.5514 26.6667 18.6667C26.6364 19.3639 26.0736 19.9199 25.376 19.9417C24.6784 19.9632 24.082 19.4434 24.0088 18.7494L22.6667 18.0788ZM25.6742 17.3835L28 15.0573V12H22.6667V16.5879L24.5999 17.5547C24.8174 17.4102 25.0723 17.333 25.3333 17.3333C25.4486 17.335 25.5632 17.3516 25.6742 17.3835ZM33.3334 36H38.6667V1.33333H33.3334V9.72396L34.7168 8.34083C34.6849 8.22982 34.6683 8.11524 34.6667 8C34.6667 7.26368 35.2637 6.66667 36 6.66667C36.7363 6.66667 37.3334 7.26368 37.3334 8C37.3334 8.73633 36.7363 9.33334 36 9.33334C35.8848 9.33171 35.7702 9.31511 35.6592 9.28321L33.3334 11.6094V36ZM0.666667 38.6667H39.3334C39.7015 38.6667 40 38.9652 40 39.3333C40 39.7015 39.7015 40 39.3334 40H0.666667C0.298503 40 0 39.7015 0 39.3333C0 38.9652 0.298503 38.6667 0.666667 38.6667Z" fill="url(#paint0_linear)"/>
<defs>
<linearGradient id="paint0_linear" x1="40" y1="20" x2="3.54298e-07" y2="20" gradientUnits="userSpaceOnUse">
<stop stop-color="#FF9900"/>
<stop offset="1" stop-color="#FFE91A"/>
</linearGradient>
</defs>
</svg>

<svg width="40" height="40" viewBox="0 0 40 40" fill="none" xmlns="http://www.w3.org/2000/svg"><path fill-rule="evenodd" clip-rule="evenodd" d="M32.667 0h6.666c.369 0 .667.299.667.667v36a.667.667 0 01-.667.666h-6.666a.667.667 0 01-.667-.666V12.943l-2.667 2.666v21.058a.667.667 0 01-.666.666H22a.667.667 0 01-.667-.666V17.412l-2.666-1.333v20.588a.667.667 0 01-.667.666h-6.667a.667.667 0 01-.666-.666v-18.39L8 20.942v15.724a.667.667 0 01-.667.666H.667A.667.667 0 010 36.667v-20C0 16.298.299 16 .667 16h6.666c.369 0 .667.299.667.667v2.39l2.667-2.666V6c0-.368.298-.667.666-.667H18c.368 0 .667.299.667.667v8.588l2.666 1.333v-4.588c0-.368.299-.666.667-.666h6.667c.368 0 .666.298.666.666v2.391L32 11.057V.667c0-.368.298-.667.667-.667zM4.34 22.717l2.326-2.326v-3.058H1.333V36h5.334V22.276L5.283 23.66a1.3 1.3 0 01.05.341A1.333 1.333 0 114 22.667c.115.001.23.018.34.05zM12 16.943V36h5.333V15.412l-1.933-.967a1.321 1.321 0 01-.733.222 1.302 1.302 0 01-.341-.05L12 16.942zm3.991-3.692l1.342.67V6.667H12v8.39l1.383-1.383a1.303 1.303 0 01-.05-.34 1.334 1.334 0 012.658-.083zm6.676 4.828V36H28V16.943l-1.384 1.383c.032.11.05.225.05.34a1.334 1.334 0 01-2.657.083l-1.342-.67zm3.007-.695L28 15.057V12h-5.333v4.588l1.933.967c.217-.145.472-.222.733-.222.116.002.23.019.341.05zM33.334 36h5.333V1.333h-5.334v8.391l1.384-1.383a1.299 1.299 0 01-.05-.341A1.333 1.333 0 1136 9.333a1.3 1.3 0 01-.34-.05l-2.327 2.326V36zM.666 38.667h38.666a.667.667 0 010 1.333H.667a.667.667 0 010-1.333z" fill="url(#paint0_linear)"/><defs><linearGradient id="paint0_linear" x1="40" y1="20" x2="0" y2="20" gradientUnits="userSpaceOnUse"><stop stop-color="#F90"/><stop offset="1" stop-color="#FFE91A"/></linearGradient></defs></svg>
